X:601
T:
S:Uppt. efter »Florsen» i Burs.
R:schottis
O:Gotland, Burs
M:2/4
L:1/16
K:G
Bd|g2Bc d2G2|ABcB A2AB|c2D2F2A2|GABc d2Bd|
g2Bc d2G2|ABcB A2AB|c2D2F2A2|G2GG G2:|
K:D
|:FG|A2A2 d2d2|f2fe g2f2|e2A2c2e2|defg a4|
A2A2 d2d2|f2fe g2f2|e2A2c2e2|d2dd d2:|

